**kern	**kern	**dynam
*part1	*part1	*part1
*staff2	*staff1	*
*I"Piano	*	*
*clefF4	*clefG2	*
*k[b-e-a-d-]	*k[b-e-a-d-]	*
=1	=1	=1
*	*^	*
[2.GGG-X [2.GG-X	(4aa-	8ff-XL 8aa-	.
.	.	8a-J	.
.	4ff-	8dd-L 8ff-	.
.	.	8f-XJ	>
.	4ee-	8b-L 8ee-	.
.	.	8e-J	.
=	=	=	=
2.GGG-] 2.GG-]	2b-	8f-XL	.
.	.	8a-	.
.	.	8e-	.
.	.	8g-X	.
.	4b-)	8b-	.
.	.	8dnJ	.
=	=	=	=
*^	*	*	*
(8GGG-XL	4GGG-	(4ee-	8cc-XL 8ee-	]
8GG-XJ	.	.	8e-J	.
8CC-XL	4CC-	4cc-	8e-L 8cc-	.
8C-XJ	.	.	8c-XJ	.
8EE-L)	4EE-	4g-X)	8g-L	.
8E-J	.	.	8G-XJ	.
=	=	=	=	=
(8BBB--L	4BBB--	(4ee-	8cc-XL 8ee-	.
8BB--J	.	.	8e-J	.
8CC-XL	4CC-	4cc-	8e-L 8cc-	.
8C-XJ	.	.	8c-XJ	.
8EE-L	4EE-	4g-X)	8g-L	.
8E-J)	.	.	8G-XJ	.
*	*	*v	*v	*
=	=	=	=
8r	2.AAA-	4r	pp
4AA-	.	.	.
.	.	(4dd- [4gg-X 4bb--	.
4AA-	.	.	.
.	.	4cc) 4gg-] 4aa-	.
8AA-	.	.	.
=	=	=	=
8r	2.DD-	4r	.
4D-	.	.	.
.	.	(4a- 4dd- 4ff-X	.
4D-	.	.	.
.	.	4f-X) 4a- 4dd-	.
8D-	.	.	.
=	=	=	=
8r	2.EE-	4r	.
4E-	.	.	.
.	.	([4e- 4cc-X	.
4E-	.	.	.
.	.	4d-) 4e-] 4b-	.
8E-	.	.	.
*v	*v	*	*
=	=	=
*-	*-	*-
!!!system-decoration: {(s1,s2)}
